X:318
T: JETZUND NEHM ICH MEINE BUECHSE
N: E1468
O: Europa, Mitteleuropa, Deutschland, Hessen, Marburg, Eschwege
R: Staende -, Jaeger - Lied, Wilderer
M: 3/4
L: 1/8
K: G
DD | G2d2BG | A2c2
AA | B2B2dB | A4
AB | c2e2ge | d2B2
AB | c2cedc | B4
AB | c2e2ge | d2B2
AB | c2cedc | B4

@@@ Tune index: 5002
